static/img/pages/customers/logos/yahoo.svg

<svg width="114" height="32" viewBox="0 0 114 32" fill="none" xmlns="http://www.w3.org/2000/svg">
<path fill-rule="evenodd" clip-rule="evenodd" d="M0.924805 8.01997H7.5968L11.4818 17.96L15.4178 8.01997H21.9138L12.1318 31.551H5.5938L8.2718 25.316L0.924805 8.01997V8.01997ZM28.6818 7.62497C23.6688 7.62497 20.4988 12.121 20.4988 16.598C20.4988 21.636 23.9738 25.631 28.5868 25.631C32.0268 25.631 33.3248 23.534 33.3248 23.534V25.167H39.1448V8.01997H33.3248V9.57897C33.3248 9.57897 31.8778 7.62397 28.6818 7.62397V7.62497ZM29.9198 13.135C32.2328 13.135 33.4258 14.965 33.4258 16.617C33.4258 18.395 32.1478 20.14 29.9198 20.14C28.0728 20.14 26.4038 18.631 26.4038 16.693C26.4038 14.726 27.7458 13.135 29.9198 13.135V13.135ZM41.1488 25.167V0.449974H47.2348V9.63997C47.2348 9.63997 48.6808 7.62797 51.7088 7.62797C55.4128 7.62797 57.5828 10.388 57.5828 14.331V25.168H51.5398V15.815C51.5398 14.481 50.9038 13.192 49.4638 13.192C47.9978 13.192 47.2338 14.501 47.2338 15.815V25.168H41.1498L41.1488 25.167ZM67.9608 7.62698C62.2188 7.62698 58.8008 11.992 58.8008 16.669C58.8008 21.992 62.9398 25.631 67.9808 25.631C72.8688 25.631 77.1458 22.157 77.1458 16.759C77.1458 10.852 72.6678 7.62698 67.9608 7.62698V7.62698ZM68.0148 13.186C70.0428 13.186 71.4458 14.875 71.4458 16.676C71.4458 18.212 70.1388 20.106 68.0158 20.106C66.0698 20.106 64.6088 18.546 64.6088 16.659C64.6088 14.841 65.8228 13.186 68.0148 13.186ZM87.2858 7.62597C81.5458 7.62597 78.1258 11.992 78.1258 16.669C78.1258 21.992 82.2658 25.631 87.3078 25.631C92.1948 25.631 96.4708 22.157 96.4708 16.759C96.4708 10.852 91.9938 7.62698 87.2858 7.62698V7.62597ZM87.3408 13.186C89.3688 13.186 90.7718 14.875 90.7718 16.676C90.7718 18.212 89.4638 20.106 87.3408 20.106C85.3948 20.106 83.9348 18.546 83.9348 16.659C83.9348 14.841 85.1488 13.186 87.3408 13.186ZM97.2318 21.49C97.2318 20.418 97.6577 19.3899 98.4157 18.6318C99.1737 17.8738 100.202 17.448 101.274 17.448C102.346 17.448 103.374 17.8738 104.132 18.6318C104.89 19.3899 105.316 20.418 105.316 21.49C105.316 22.562 104.89 23.5901 104.132 24.3481C103.374 25.1061 102.346 25.532 101.274 25.532C100.202 25.532 99.1737 25.1061 98.4157 24.3481C97.6577 23.5901 97.2318 22.562 97.2318 21.49V21.49ZM106.644 15.963H99.3678L105.826 0.448975H113.075L106.644 15.963V15.963Z" fill="#5F01D1"/>
</svg>

<svg width="114" height="32" viewBox="0 0 114 32" fill="none" xmlns="http://www.w3.org/2000/svg"><path fill-rule="evenodd" clip-rule="evenodd" d="M.925 8.02h6.672l3.885 9.94 3.936-9.94h6.496l-9.782 23.531H5.594l2.678-6.235L.925 8.02zm27.757-.395c-5.013 0-8.183 4.496-8.183 8.973 0 5.038 3.475 9.033 8.088 9.033 3.44 0 4.738-2.097 4.738-2.097v1.633h5.82V8.02h-5.82v1.559s-1.447-1.955-4.643-1.955v.001zm1.238 5.51c2.313 0 3.506 1.83 3.506 3.482 0 1.778-1.278 3.523-3.506 3.523-1.847 0-3.516-1.509-3.516-3.447 0-1.967 1.342-3.558 3.516-3.558zm11.229 12.032V.45h6.086v9.19s1.446-2.012 4.474-2.012c3.704 0 5.874 2.76 5.874 6.703v10.837H51.54v-9.353c0-1.334-.636-2.623-2.076-2.623-1.466 0-2.23 1.309-2.23 2.623v9.353H41.15l-.001-.001zM67.96 7.627c-5.742 0-9.16 4.365-9.16 9.042 0 5.323 4.139 8.962 9.18 8.962 4.888 0 9.165-3.474 9.165-8.872 0-5.907-4.478-9.132-9.185-9.132zm.054 5.559c2.028 0 3.43 1.689 3.43 3.49 0 1.536-1.306 3.43-3.43 3.43-1.945 0-3.406-1.56-3.406-3.447 0-1.818 1.214-3.473 3.406-3.473zm19.27-5.56c-5.74 0-9.16 4.366-9.16 9.043 0 5.323 4.14 8.962 9.183 8.962 4.887 0 9.163-3.474 9.163-8.872 0-5.907-4.477-9.132-9.185-9.132v-.001zm.056 5.56c2.028 0 3.43 1.689 3.43 3.49 0 1.536-1.307 3.43-3.43 3.43-1.946 0-3.406-1.56-3.406-3.447 0-1.818 1.214-3.473 3.406-3.473zm9.89 8.304a4.042 4.042 0 118.086 0 4.042 4.042 0 01-8.085 0zm9.413-5.527h-7.276L105.826.449h7.249l-6.431 15.514z" fill="#5F01D1"/></svg>
